X:1
T:Title
%%score { ( 1 3 4 ) | ( 2 5 6 ) }
L:1/8
M:3/4
K:F
V:1 treble nm="Grand Piano"
V:3 treble 
V:4 treble 
V:2 treble 
V:5 treble 
V:6 treble 
V:1
 z2 z2[Q:1/4=94] A>B | [Ac]4 z2 | [FA] G3 [EG]>A | [GB]3 G [Ac]>B | [FA]4 z2 | z2 z d Bd | %6
 z c3 z2 | z2 z G GA | [EG]4 [FA]>B | [Ac]4 z2 |[M:2/4] [F,A,F]4 |[M:1/4] d>c |[M:3/4] [GB]4 z2 | %13
 [FA]4 z2 | [GB]4 z2 |[M:2/4] [Ac]4 |[M:1/4] F>F |[M:3/4] d3 c B>[^FA] | %18
 B4 F>G[Q:1/4=93][Q:1/4=91][Q:1/4=90][Q:1/4=88][Q:1/4=87][Q:1/4=86][Q:1/4=84][Q:1/4=83][Q:1/4=82][Q:1/4=80][Q:1/4=79][Q:1/4=77][Q:1/4=76] | %19
[M:27/32] A/4-A/4-A/4-A/4-A/4-A/4-A/4-A/4-A/-<A/[DFB]/-<[DFB]/ z/4 z/4 z/4 z/4 z/4 z/4 z/ [A,CF]3/4[Q:1/4=75][Q:1/4=73][Q:1/4=72] | %20
[M:2/4] [A,CF]4 |] %21
V:2
 z2 z2 F>G | F,,2 z[K:treble] F z F | z2[K:treble] C2 z z/ F/ | C,2 z[K:treble] E z z/ G/ | %4
 F,,2 F,2 [F,A,C]2 | B,,2 z[K:treble] B z B | z A3 F2 | G,,2 z[K:treble] F FF | %8
 z2 z2[K:treble] C2 | F,,2 z D C>B, |[M:2/4] F,,4 |[M:1/4][K:treble] B>A | %12
[M:3/4][K:bass] C,>C, C,[K:treble]E A>G | F,>F, .F,2[K:treble] B>A | %14
 C,>E, G,[K:treble][B,CE] [A,CF][G,CG] |[M:2/4][K:bass] [F,C]C, F,2 |[M:1/4] [A,C]>[A,C] | %17
[M:3/4][K:treble] [B,DF]3 [A,D^F] [G,DG]>[D,D] | [G,DG]4 [B,D]>[B,^CF] | %19
[M:27/32][K:bass] [F,CF]/4-[F,CF]/4-[F,CF]/4-[F,CF]/4-[F,CF]/4-[F,CF]/4-[F,CF]/4-[F,CF]/4-[F,CF]/-<[F,CF]/B,,/-<B,,/ z/4 z/4 z/4 z/4 z/4 z/4 z/ F,3/4 | %20
[M:2/4] F,4 |] %21
V:3
 x6 | z2 z A [GB]A | x6 | x6 | z2 C2 F>F | [Bd]4 z2 | .[Bd]2 C2 A>A | [FA]4 z2 | x6 | z2 z B A>G | %10
[M:2/4] x4 |[M:1/4] x2 |[M:3/4] C>C CG c>B | C>C .C2 d>c | C>C CG AB |[M:2/4] z C C2 |[M:1/4] x2 | %17
[M:3/4] x6 | x6 | %19
[M:27/32] z/4 z/4 z/4 z/4 z/4 z/4 z/4 z/4 z/4 z/4 z/4 z/4 z/4 z/4 z/ [B,EG]/4-[B,EG]/4-[B,EG]/4-[B,EG]/4-[B,EG]/4-[B,EG]/4-[B,EG]/-<[B,EG]/ z/4 | %20
[M:2/4] x4 |] %21
V:4
 x6 | z2 C2 z2 | x6 | x6 | x6 | z2 D2 z2 | x6 | z2 =B,2 z2 | x6 | z2 C2 z2 |[M:2/4] x4 | %11
[M:1/4] x2 |[M:3/4] x6 | x6 | x6 |[M:2/4] x4 |[M:1/4] x2 |[M:3/4] x6 | x6 |[M:27/32] x27/4 | %20
[M:2/4] x4 |] %21
V:5
 x6 | z2 F,2[K:treble] [F,C]2 | z E3[K:treble] C2 | z2 C2[K:treble] C2 | x6 | %5
 z2 B,2[K:treble] [B,D]2 | z2 F,2 [F,C]->[F,CF] | z2 G,2[K:treble] [G,=B,]2 | %8
 C,2 C2[K:treble] z z/ G/ | z2 F,2 [C,E,]2 |[M:2/4] x4 |[M:1/4][K:treble] x2 | %12
[M:3/4][K:bass] x3[K:treble] x3 | x4[K:treble] x2 | x3[K:treble] x3 |[M:2/4][K:bass] x4 | %16
[M:1/4] x2 |[M:3/4][K:treble] x6 | x6 | %19
[M:27/32][K:bass] z/4 z/4 z/4 z/4 z/4 z/4 z/4 z/4 z/4 z/4 z/4 z/4 z/4 z/4 z/ C,/4-C,/4-C,/4-C,/4-C,/4-C,/4-C,/-<C,/ z/4 | %20
[M:2/4] x4 |] %21
V:6
 x6 | x3[K:treble] x3 | C,2[K:treble] z2 z2 | x3[K:treble] x3 | x6 | x3[K:treble] x3 | F,,2 z2 z2 | %7
 x3[K:treble] x3 | x4[K:treble] x2 | x6 |[M:2/4] x4 |[M:1/4][K:treble] x2 | %12
[M:3/4][K:bass] x3[K:treble] x3 | x4[K:treble] x2 | x3[K:treble] x3 |[M:2/4][K:bass] x4 | %16
[M:1/4] x2 |[M:3/4][K:treble] x6 | x6 |[M:27/32][K:bass] x27/4 |[M:2/4] x4 |] %21

